1-js/08-prototypes/03-native-prototypes/native-prototypes-array-tostring.svg

<?xml version="1.0" encoding="UTF-8"?>
<svg width="209px" height="316px" viewBox="0 0 209 316" version="1.1" xmlns="http://www.w3.org/2000/svg" xmlns:xlink="http://www.w3.org/1999/xlink">
    <!-- Generator: sketchtool 61.2 (101010) - https://sketch.com -->
    <title>native-prototypes-array-tostring.svg</title>
    <desc>Created with sketchtool.</desc>
    <g id="inheritance" stroke="none" stroke-width="1" fill="none" fill-rule="evenodd">
        <g id="native-prototypes-array-tostring.svg">
            <rect id="Rectangle-1" stroke="#E8C48E" stroke-width="2" fill="#FFF9EB" x="17" y="156" width="168" height="58"></rect>
            <text id="toString:-function" font-family="PTMono-Bold, PT Mono" font-size="14" font-weight="bold">
                <tspan x="27" y="179" fill="#EC6B4E">toString: function</tspan>
                <tspan x="178.2" y="179" font-family="PTMono-Regular, PT Mono" font-weight="normal" fill="#8A704D"></tspan>
                <tspan x="27" y="194" font-family="PTMono-Regular, PT Mono" font-weight="normal" fill="#8A704D">...</tspan>
            </text>
            <text id="Array.prototype" font-family="PTMono-Regular, PT Mono" font-size="14" font-weight="normal" fill="#8A704D">
                <tspan x="16" y="148">Array.prototype</tspan>
            </text>
            <rect id="Rectangle-1" stroke="#E8C48E" stroke-width="2" fill="#FFF9EB" x="17" y="23" width="168" height="58"></rect>
            <text id="toString:-function" font-family="PTMono-Regular, PT Mono" font-size="14" font-weight="normal" fill="#8A704D">
                <tspan x="27" y="46">toString: function</tspan>
                <tspan x="27" y="61">...</tspan>
            </text>
            <text id="Object.prototype" font-family="PTMono-Regular, PT Mono" font-size="14" font-weight="normal" fill="#8A704D">
                <tspan x="16" y="15">Object.prototype</tspan>
            </text>
            <rect id="Rectangle-1" stroke="#E8C48E" stroke-width="2" fill="#FFF9EB" x="17" y="273" width="168" height="28"></rect>
            <path id="Line" d="M76.5,222.5 L83.5,236.5 L77.5,236.5 L77.5,264.5 L75.5,264.5 L75.5,236.5 L69.5,236.5 L76.5,222.5 Z" fill="#EE6B47" fill-rule="nonzero"></path>
            <text id="[[Prototype]]" font-family="PTMono-Regular, PT Mono" font-size="14" font-weight="normal" fill="#8A704D">
                <tspan x="86" y="244">[[Prototype]]</tspan>
            </text>
            <path id="Line-2" d="M76.5,90.5 L83.5,104.5 L77.5,104.5 L77.5,132.5 L75.5,132.5 L75.5,104.5 L69.5,104.5 L76.5,90.5 Z" fill="#EE6B47" fill-rule="nonzero"></path>
            <text id="[[Prototype]]" font-family="PTMono-Regular, PT Mono" font-size="14" font-weight="normal" fill="#8A704D">
                <tspan x="86" y="112">[[Prototype]]</tspan>
            </text>
            <text id="[1,-2,-3]" font-family="PTMono-Regular, PT Mono" font-size="14" font-weight="normal" fill="#8A704D">
                <tspan x="41" y="291">[1, 2, 3]</tspan>
            </text>
        </g>
    </g>
</svg>

<svg xmlns="http://www.w3.org/2000/svg" width="209" height="316" viewBox="0 0 209 316"><defs><style>@import url(https://fonts.googleapis.com/css?family=Open+Sans:bold,italic,bolditalic%7CPT+Mono);@font-face{font-family:&apos;PT Mono&apos;;font-weight:700;font-style:normal;src:local(&apos;PT MonoBold&apos;),url(/font/PTMonoBold.woff2) format(&apos;woff2&apos;),url(/font/PTMonoBold.woff) format(&apos;woff&apos;),url(/font/PTMonoBold.ttf) format(&apos;truetype&apos;)}</style></defs><g id="inheritance" fill="none" fill-rule="evenodd" stroke="none" stroke-width="1"><g id="native-prototypes-array-tostring.svg"><path id="Rectangle-1" fill="#FFF9EB" stroke="#E8C48E" stroke-width="2" d="M17 156h168v58H17z"/><text id="toString:-function" font-family="PTMono-Bold, PT Mono" font-size="14" font-weight="bold"><tspan x="27" y="179" fill="#EC6B4E">toString: function</tspan>  <tspan x="27" y="194" fill="#8A704D" font-family="PTMono-Regular, PT Mono" font-weight="normal">...</tspan></text><text id="Array.prototype" fill="#8A704D" font-family="PTMono-Regular, PT Mono" font-size="14" font-weight="normal"><tspan x="16" y="148">Array.prototype</tspan></text><path id="Rectangle-1" fill="#FFF9EB" stroke="#E8C48E" stroke-width="2" d="M17 23h168v58H17z"/><text id="toString:-function" fill="#8A704D" font-family="PTMono-Regular, PT Mono" font-size="14" font-weight="normal"><tspan x="27" y="46">toString: function</tspan> <tspan x="27" y="61">...</tspan></text><text id="Object.prototype" fill="#8A704D" font-family="PTMono-Regular, PT Mono" font-size="14" font-weight="normal"><tspan x="16" y="15">Object.prototype</tspan></text><path id="Rectangle-1" fill="#FFF9EB" stroke="#E8C48E" stroke-width="2" d="M17 273h168v28H17z"/><path id="Line" fill="#EE6B47" fill-rule="nonzero" d="M76.5 222.5l7 14h-6v28h-2v-28h-6l7-14z"/><text id="[[Prototype]]" fill="#8A704D" font-family="PTMono-Regular, PT Mono" font-size="14" font-weight="normal"><tspan x="86" y="244">[[Prototype]]</tspan></text><path id="Line-2" fill="#EE6B47" fill-rule="nonzero" d="M76.5 90.5l7 14h-6v28h-2v-28h-6l7-14z"/><text id="[[Prototype]]" fill="#8A704D" font-family="PTMono-Regular, PT Mono" font-size="14" font-weight="normal"><tspan x="86" y="112">[[Prototype]]</tspan></text><text id="[1,-2,-3]" fill="#8A704D" font-family="PTMono-Regular, PT Mono" font-size="14" font-weight="normal"><tspan x="41" y="291">[1, 2, 3]</tspan></text></g></g></svg>
